icons/gatsby-fill.svg

<svg width="24" height="24" fill="none" xmlns="http://www.w3.org/2000/svg"><g clip-path="url(#a)"><path d="M12 2C6.5 2 2 6.5 2 12s4.5 10 10 10 10-4.5 10-10S17.5 2 12 2ZM6.429 17.571c-1.5-1.5-2.286-3.5-2.286-5.428l7.786 7.714c-2-.071-4-.786-5.5-2.286Zm7.285 2.072-9.357-9.357c.786-3.5 3.929-6.143 7.643-6.143 2.643 0 4.929 1.286 6.357 3.214l-1.071.929C16.07 6.643 14.143 5.57 12 5.57c-2.786 0-5.143 1.786-6.071 4.286l8.214 8.214c2.071-.714 3.643-2.5 4.143-4.642h-3.429V12h5c0 3.714-2.643 6.857-6.143 7.643Z" /></g><defs><clipPath id="a"><path fill="#fff" d="M0 0h24v24H0z"/></clipPath></defs></svg>

<svg xmlns="http://www.w3.org/2000/svg" width="24" height="24" fill="none"><g clip-path="url(#a)"><g><path fill="#121212" d="M12 2C6.5 2 2 6.5 2 12C2 17.5 6.5 22 12 22C17.5 22 22 17.5 22 12C22 6.5 17.5 2 12 2ZM6.429 17.571C4.929 16.071 4.143 14.071 4.143 12.143L11.929 19.857C9.929 19.786 7.929 19.071 6.429 17.571ZM13.714 19.643L4.357 10.286C5.143 6.786 8.286 4.143 12 4.143C14.643 4.143 16.929 5.429 18.357 7.357L17.286 8.286C16.07 6.643 14.143 5.57 12 5.57C9.214 5.57 6.857 7.356 5.929 9.856L14.143 18.07C16.214 17.356 17.786 15.57 18.286 13.428H14.857V12H19.857C19.857 15.714 17.214 18.857 13.714 19.643Z"/></g></g><defs><clipPath id="a"><rect width="24" height="24" fill="white"/></clipPath></defs></svg>
